lib/logotmp/nrk-logo-nrk-trondelag-with-bg.svg

<svg width="127" height="24" viewBox="0 0 127 24" fill="none" xmlns="http://www.w3.org/2000/svg">
<rect width="127" height="24" fill="#1767CE"/>
<path d="M6 17.9976V5.99865H10V17.9976H6ZM15.2438 7.90834L17.5081 17.9976H13.1992L10.4955 5.99865H12.9122C13.4663 5.99146 14.0041 6.18681 14.4245 6.54795C14.8456 6.89394 15.0849 7.37426 15.2438 7.90834ZM18 17.9976V5.99865H22V17.9976H18ZM25.0105 10.5617C24.5862 10.5658 24.1687 10.4548 23.8025 10.2405C23.4412 10.0317 23.1411 9.73152 22.9323 9.37016C22.7178 9.00389 22.6068 8.58632 22.611 8.16188C22.6061 7.74002 22.7172 7.32494 22.9323 6.96199C23.1433 6.60455 23.4431 6.30765 23.8025 6.10008C24.1689 5.88606 24.5862 5.77507 25.0105 5.77894C25.4322 5.7744 25.8471 5.88549 26.2102 6.10008C26.566 6.30947 26.8626 6.60612 27.072 6.96199C27.2868 7.32504 27.3979 7.74005 27.3933 8.16188C27.3973 8.58629 27.2863 9.00379 27.072 9.37016C26.8649 9.72993 26.5679 10.0298 26.2102 10.2405C25.8471 10.4555 25.4324 10.5666 25.0105 10.5617ZM28 17.9976V5.99865H32V17.9976H28ZM36.9737 12.5558C36.9848 12.5674 37.0693 12.7054 37.2272 12.9698C37.3851 13.2342 37.5906 13.5722 37.8439 13.9838C38.0974 14.3953 38.3649 14.8318 38.6463 15.2936C38.9278 15.7553 39.1926 16.1919 39.4408 16.6033C39.6881 17.0147 39.9697 17.4795 40.2857 17.9976H35.9598C35.6893 17.5582 35.4441 17.161 35.2245 16.8061C35.0048 16.4512 34.7713 16.0681 34.5238 15.6569C34.2758 15.2461 34.0306 14.8461 33.7882 14.457C33.5458 14.0679 33.3375 13.7272 33.1633 13.4346C32.9883 13.1419 32.8671 12.9447 32.7997 12.8431C32.6325 12.591 32.5336 12.2999 32.5127 11.9981C32.5294 11.7085 32.6226 11.4285 32.7828 11.1867C32.8503 11.074 32.9743 10.874 33.1545 10.5867C33.3348 10.2994 33.546 9.95861 33.7882 9.56428C34.0304 9.16995 34.2756 8.76716 34.5238 8.35593C34.772 7.9447 35.0055 7.55879 35.2245 7.19826C35.4445 6.83811 35.6897 6.43814 35.9598 5.99837H40.2857L36.9396 11.4571C36.8361 11.6191 36.7777 11.8059 36.7706 11.9981C36.7818 12.1999 36.8528 12.3939 36.9737 12.5558Z" fill="white"/>
<g clip-path="url(#clip0_5918_1338)">
<path d="M48.773 7.4866V17.9956H46.999V7.4866H43.1299V5.9998H52.6251V7.4866H48.773ZM56.0887 9.31976C55.7733 9.40424 55.4749 9.53377 55.1933 9.70836C54.9117 9.88295 54.647 10.0941 54.3992 10.3419C54.3598 10.3814 54.3203 10.4264 54.2809 10.4687V9.20994L52.5576 9.46338V17.9956H54.2809V11.6119C54.4104 11.5218 54.5428 11.4373 54.6779 11.3641C54.8525 11.2684 55.0271 11.1867 55.2017 11.1191C55.3763 11.0516 55.5537 10.9924 55.7339 10.9417C55.9141 10.891 56.1028 10.8544 56.2999 10.8319C56.497 10.8094 56.7026 10.8038 56.9166 10.815L57.1193 9.22684C56.7476 9.20431 56.4041 9.23529 56.0887 9.31976ZM66.7329 9.69991L65.7558 10.7362C65.8797 10.8995 65.9979 11.0741 66.0993 11.2627C66.4541 11.9217 66.6315 12.696 66.6315 13.5859C66.6315 14.5208 66.44 15.3317 66.0571 16.0188C65.6741 16.7059 65.1475 17.2353 64.4773 17.607C63.8071 17.9787 63.0328 18.1646 62.1542 18.1646C61.2756 18.1646 60.5519 17.99 59.9156 17.6408C59.7719 17.5619 59.6368 17.4718 59.5072 17.3761L58.6062 18.3504L57.829 17.6408L58.7695 16.6383C58.6484 16.475 58.5358 16.3004 58.4372 16.1118C58.088 15.4416 57.9134 14.6447 57.9134 13.721C57.9134 12.7974 58.0965 11.9977 58.4625 11.3219C58.8286 10.6461 59.3411 10.1223 60 9.7506C60.659 9.3789 61.4277 9.19305 62.3063 9.19305C63.1848 9.19305 63.962 9.37327 64.6041 9.7337C64.742 9.80973 64.8687 9.89703 64.9926 9.98995L65.9388 8.9903L66.7329 9.69991ZM59.7213 13.6197C59.7213 14.3096 59.8226 14.8868 60.0282 15.3571L63.9592 11.1107C63.8071 10.9727 63.6354 10.8573 63.4411 10.77C63.1257 10.6292 62.754 10.5588 62.326 10.5588C61.7966 10.5588 61.3376 10.6714 60.949 10.8967C60.5604 11.1219 60.2591 11.4599 60.0451 11.9104C59.8311 12.361 59.7241 12.9298 59.7241 13.6169L59.7213 13.6197ZM64.8406 13.6197C64.8406 13.1579 64.7871 12.7383 64.6801 12.361C64.6378 12.2145 64.5872 12.0765 64.5308 11.947L60.597 16.1934C60.6956 16.2863 60.7969 16.3708 60.9124 16.4412C61.2897 16.6778 61.7318 16.796 62.2387 16.796C62.7455 16.796 63.1933 16.6806 63.5819 16.4497C63.9705 16.2188 64.2774 15.8668 64.5027 15.3937C64.728 14.9206 64.8406 14.3293 64.8406 13.6197ZM75.4172 9.54785C74.9891 9.31132 74.4485 9.19305 73.7952 9.19305C73.3109 9.19305 72.8293 9.26908 72.3506 9.42114C71.8719 9.5732 71.4186 9.79002 70.9905 10.0716C70.8272 10.1786 70.6695 10.2969 70.5175 10.418V9.20994L68.7941 9.46338V17.9956H70.5175V11.5781C70.6808 11.4824 70.8526 11.3923 71.0328 11.3134C71.275 11.2064 71.5171 11.1135 71.7593 11.0347C72.0015 10.9558 72.2436 10.8967 72.4858 10.8573C72.728 10.8178 72.9617 10.7981 73.187 10.7981C73.5023 10.7981 73.7727 10.8404 73.9979 10.9248C74.2232 11.0093 74.4091 11.136 74.5555 11.305C74.7019 11.4739 74.8089 11.6879 74.8765 11.947C74.9441 12.2061 74.9779 12.5102 74.9779 12.8594V17.9956H76.7012V12.5046C76.7012 11.7386 76.5942 11.1135 76.3802 10.6292C76.1662 10.1448 75.8452 9.78439 75.4172 9.54785ZM85.1659 5.49293L86.8892 5.2564V17.9956H85.4869L85.2757 17.2156C85.149 17.3085 85.0223 17.3958 84.8955 17.4718C84.5126 17.7084 84.1212 17.883 83.7213 17.9956C83.3214 18.1082 82.8962 18.1646 82.4457 18.1646C81.6685 18.1646 81.0011 17.9928 80.4436 17.6492C79.886 17.3057 79.458 16.8185 79.1595 16.1878C78.861 15.557 78.7118 14.808 78.7118 13.9407C78.7118 12.927 78.9089 12.0681 79.3031 11.3641C79.6974 10.6601 80.2183 10.1223 80.866 9.7506C81.5136 9.3789 82.2148 9.19305 82.9694 9.19305C83.3975 9.19305 83.7889 9.22965 84.1437 9.30287C84.4985 9.37608 84.8223 9.46901 85.1152 9.58164C85.1321 9.58728 85.149 9.59572 85.1659 9.60417V5.49293ZM85.1659 16.1061V10.8995C85.0786 10.8685 84.9856 10.8319 84.904 10.8066C84.6393 10.7221 84.3774 10.6601 84.1183 10.6207C83.8593 10.5813 83.5889 10.5616 83.3074 10.5616C82.7216 10.5616 82.2176 10.6827 81.7952 10.9248C81.3728 11.167 81.049 11.5218 80.8237 11.9893C80.5984 12.4567 80.4858 13.0396 80.4858 13.7379C80.4858 14.4363 80.5872 14.9966 80.7899 15.4528C80.9927 15.909 81.2855 16.2469 81.6685 16.4666C82.0515 16.6862 82.5133 16.796 83.0539 16.796C83.4144 16.796 83.817 16.7144 84.262 16.551C84.5464 16.4468 84.8477 16.2948 85.1659 16.1061ZM96.7646 12.0146C96.9054 12.6228 96.9364 13.3212 96.8575 14.1096H90.7526C90.7752 14.5405 90.8343 14.9122 90.9357 15.2247C91.0652 15.619 91.2567 15.9315 91.5101 16.1624C91.7635 16.3933 92.0761 16.5567 92.4478 16.6524C92.8195 16.7481 93.2588 16.796 93.7657 16.796C94.0135 16.796 94.2613 16.7819 94.5091 16.7538C94.7569 16.7256 94.999 16.6806 95.2356 16.6186C95.4721 16.5567 95.7002 16.4863 95.9198 16.4074C96.1395 16.3286 96.3563 16.2497 96.5703 16.1709L96.452 17.4718C96.1479 17.6295 95.8438 17.7591 95.5397 17.8604C95.2356 17.9618 94.9117 18.0378 94.5682 18.0885C94.2247 18.1392 93.8276 18.1646 93.3771 18.1646C92.4309 18.1646 91.6312 17.9984 90.9779 17.6661C90.3246 17.3339 89.8318 16.8439 89.4996 16.1962C89.1673 15.5486 89.0011 14.7629 89.0011 13.8393C89.0011 13.141 89.0941 12.5074 89.2799 11.9386C89.4658 11.3698 89.7361 10.8826 90.0909 10.4771C90.4457 10.0716 90.8765 9.75623 91.3834 9.53096C91.8903 9.30568 92.4647 9.19305 93.1067 9.19305C93.7488 9.19305 94.3204 9.30005 94.8216 9.51406C95.3229 9.72807 95.7368 10.0463 96.0635 10.4687C96.3901 10.891 96.6238 11.4064 96.7646 12.0146ZM91.0033 11.9217C90.8991 12.1976 90.8315 12.5327 90.7892 12.9101H95.2328C95.2328 12.5721 95.1933 12.2539 95.1089 11.9639C94.9793 11.5134 94.7512 11.1614 94.4246 10.9079C94.0979 10.6545 93.6643 10.5278 93.1236 10.5278C92.583 10.5278 92.1662 10.6432 91.8058 10.8741C91.4454 11.1051 91.1778 11.4542 91.0033 11.9217ZM101.631 16.7538C101.58 16.7594 101.521 16.7622 101.453 16.7622C101.307 16.7622 101.183 16.7397 101.081 16.6946C100.98 16.6496 100.896 16.5792 100.828 16.4835C100.76 16.3877 100.713 16.2666 100.684 16.1202C100.656 15.9738 100.642 15.7992 100.642 15.5964V5.2395L98.9188 5.49293V16.3567C98.9188 16.6834 98.9638 16.9622 99.054 17.1931C99.1441 17.424 99.2736 17.6126 99.4426 17.7591C99.6115 17.9055 99.8114 18.0097 100.042 18.0716C100.273 18.1336 100.524 18.1646 100.794 18.1646C100.929 18.1646 101.059 18.1589 101.183 18.1477C101.307 18.1364 101.428 18.1195 101.546 18.097C101.664 18.0744 101.763 18.0519 101.842 18.0294L102.011 16.6946L101.808 16.7284C101.74 16.7397 101.681 16.7481 101.631 16.7538ZM111.286 16.9143C111.376 16.903 111.472 16.8805 111.574 16.8467L111.388 17.9787C111.331 18.0012 111.267 18.0209 111.193 18.0378C111.12 18.0547 111.038 18.0744 110.948 18.097C110.858 18.1195 110.765 18.1336 110.67 18.1392C110.574 18.1448 110.475 18.1477 110.374 18.1477C110.013 18.1477 109.692 18.0885 109.411 17.9703C109.129 17.852 108.91 17.6605 108.752 17.3958C108.667 17.255 108.608 17.0889 108.569 16.8974C108.462 17.0213 108.352 17.1424 108.237 17.2522C107.927 17.5451 107.572 17.7703 107.172 17.928C106.772 18.0857 106.296 18.1646 105.745 18.1646C105.148 18.1646 104.649 18.0519 104.249 17.8266C103.849 17.6014 103.551 17.3057 103.354 16.9396C103.157 16.5736 103.058 16.1765 103.058 15.7485C103.058 15.298 103.185 14.884 103.438 14.5067C103.692 14.1293 104.078 13.8168 104.596 13.569C105.114 13.3212 105.767 13.1748 106.556 13.1297L108.53 12.9973V12.575C108.53 12.2483 108.499 11.9639 108.431 11.7217C108.363 11.4796 108.251 11.2796 108.093 11.1219C107.935 10.9643 107.719 10.846 107.443 10.7671C107.167 10.6883 106.826 10.6489 106.42 10.6489C106.195 10.6489 105.967 10.6573 105.736 10.6742C105.505 10.6911 105.271 10.7221 105.035 10.7671C104.798 10.8122 104.553 10.8685 104.3 10.9361C104.047 11.0037 103.779 11.0882 103.497 11.1895L103.7 9.75342C103.982 9.64078 104.277 9.54222 104.587 9.45774C104.897 9.37327 105.226 9.3085 105.576 9.26345C105.925 9.21839 106.28 9.19586 106.64 9.19586C107.136 9.19586 107.581 9.24092 107.975 9.33103C108.369 9.42114 108.71 9.55067 108.997 9.71962C109.284 9.88858 109.518 10.097 109.698 10.3448C109.878 10.5926 110.013 10.8798 110.104 11.2064C110.194 11.5331 110.239 11.8935 110.239 12.2877L110.205 15.7682C110.194 16.185 110.256 16.4835 110.391 16.6637C110.526 16.8439 110.746 16.934 111.05 16.934C111.117 16.934 111.196 16.9284 111.286 16.9171V16.9143ZM108.518 15.9034L108.527 14.2279H107.048C106.496 14.2279 106.057 14.273 105.73 14.3631C105.404 14.4532 105.167 14.594 105.021 14.7855C104.874 14.9769 104.801 15.2416 104.801 15.5795C104.801 15.8386 104.858 16.0611 104.97 16.2469C105.083 16.4328 105.249 16.5764 105.469 16.6778C105.688 16.7791 105.956 16.8298 106.271 16.8298C106.519 16.8298 106.758 16.8073 106.989 16.7622C107.22 16.7172 107.44 16.644 107.648 16.5426C107.857 16.4412 108.054 16.3173 108.239 16.1709C108.338 16.092 108.431 16.0019 108.521 15.9062L108.518 15.9034ZM120.765 9.19305V17.9449C120.765 18.6883 120.599 19.3444 120.266 19.9132C119.934 20.4821 119.441 20.927 118.788 21.248C118.135 21.569 117.329 21.7295 116.372 21.7295C115.989 21.7295 115.617 21.707 115.257 21.6619C114.896 21.6169 114.55 21.5521 114.218 21.4676C113.885 21.3831 113.567 21.279 113.263 21.1551L113.077 19.6683C113.426 19.8147 113.781 19.9358 114.142 20.0315C114.502 20.1272 114.86 20.1948 115.214 20.2343C115.569 20.2737 115.916 20.2934 116.254 20.2934C116.76 20.2934 117.191 20.2399 117.546 20.1329C117.901 20.0259 118.188 19.8626 118.408 19.6429C118.627 19.4233 118.791 19.1529 118.898 18.8319C119.005 18.5109 119.058 18.1364 119.058 17.7084V17.2466C118.74 17.4803 118.419 17.6661 118.095 17.7929C117.498 18.0294 116.896 18.1477 116.287 18.1477C115.499 18.1477 114.829 17.9759 114.277 17.6323C113.725 17.2888 113.305 16.8045 113.018 16.1793C112.731 15.5542 112.587 14.8136 112.587 13.9576C112.587 13.1916 112.7 12.513 112.925 11.9217C113.15 11.3303 113.463 10.8347 113.863 10.4349C114.263 10.035 114.716 9.72807 115.223 9.51406C115.73 9.30005 116.265 9.19305 116.828 9.19305C117.155 9.19305 117.459 9.21276 117.74 9.25218C118.022 9.2916 118.284 9.34511 118.526 9.41269C118.732 9.46901 118.926 9.53941 119.112 9.61825L120.765 9.19305ZM119.058 16.0498V10.8995C118.974 10.8685 118.886 10.8347 118.805 10.8066C118.534 10.7221 118.27 10.6573 118.011 10.6123C117.752 10.5672 117.487 10.5447 117.217 10.5447C116.766 10.5447 116.363 10.6151 116.009 10.7559C115.654 10.8967 115.355 11.0966 115.113 11.3557C114.871 11.6147 114.685 11.9442 114.556 12.3441C114.426 12.7439 114.361 13.2029 114.361 13.721C114.361 14.4194 114.454 14.991 114.64 15.4359C114.826 15.8808 115.113 16.2131 115.502 16.4328C115.89 16.6524 116.377 16.7622 116.963 16.7622C117.177 16.7622 117.383 16.7397 117.58 16.6946C117.777 16.6496 117.98 16.5848 118.188 16.5003C118.396 16.4159 118.613 16.3089 118.839 16.1793C118.909 16.1399 118.985 16.0949 119.058 16.0498Z" fill="#D9E9FF"/>
</g>
<defs>
<clipPath id="clip0_5918_1338">
<rect width="78" height="17" fill="white" transform="translate(43 5)"/>
</clipPath>
</defs>
</svg>

<svg xmlns="http://www.w3.org/2000/svg" viewBox="0 0 127 24"><path fill="#1767CE" d="M0 0h127v24H0z"/><path fill="#fff" d="M6 17.998v-12h4v12H6Zm9.244-10.09 2.264 10.09H13.2l-2.704-12h2.417a2.276 2.276 0 0 1 1.512.55c.422.346.66.826.82 1.36ZM18 17.998v-12h4v12h-4Zm7.01-7.436a2.381 2.381 0 0 1-2.078-1.192 2.345 2.345 0 0 1-.321-1.208 2.301 2.301 0 0 1 .321-1.2A2.41 2.41 0 0 1 26.21 6.1c.356.21.653.506.862.862.215.363.326.778.321 1.2a2.35 2.35 0 0 1-.321 1.208 2.4 2.4 0 0 1-.862.87 2.301 2.301 0 0 1-1.2.322ZM28 17.998v-12h4v12h-4Zm8.974-5.442c.01.011.095.15.253.414s.364.602.617 1.014a316.22 316.22 0 0 1 1.597 2.62c.247.41.529.876.845 1.394H35.96c-.27-.44-.516-.837-.736-1.192-.22-.355-.453-.738-.7-1.15-.248-.41-.493-.81-.736-1.199-.242-.39-.45-.73-.625-1.022a18.04 18.04 0 0 0-.363-.592 1.747 1.747 0 0 1-.287-.845c.016-.29.11-.57.27-.811.067-.113.191-.313.371-.6a182.106 182.106 0 0 0 1.37-2.23l.7-1.159.736-1.2h4.326l-3.346 5.46a1.079 1.079 0 0 0-.17.54c.012.202.083.396.204.558Z"/><g clip-path="url(#a)"><path fill="#D9E9FF" d="M48.773 7.487v10.509h-1.774V7.486h-3.87V6h9.496v1.487h-3.852Zm7.316 1.833a3.322 3.322 0 0 0-.896.388 4.407 4.407 0 0 0-.794.634c-.04.04-.079.084-.118.127v-1.26l-1.723.254v8.533h1.723v-6.384a4.223 4.223 0 0 1 .92-.493c.175-.067.353-.127.533-.177a3.59 3.59 0 0 1 1.183-.127l.202-1.588a3.215 3.215 0 0 0-1.03.093Zm10.644.38-.977 1.036c.124.163.242.338.343.527.355.659.532 1.433.532 2.323 0 .935-.191 1.746-.574 2.433a4.006 4.006 0 0 1-1.58 1.588c-.67.372-1.444.558-2.323.558-.878 0-1.602-.175-2.238-.524a3.631 3.631 0 0 1-.409-.265l-.9.974-.778-.71.94-1.002a3.977 3.977 0 0 1-.332-.526c-.349-.67-.524-1.467-.524-2.391 0-.924.184-1.723.55-2.4.366-.675.878-1.199 1.537-1.57.659-.372 1.428-.558 2.306-.558.879 0 1.656.18 2.298.54.138.077.265.164.389.257l.946-1 .794.71Zm-7.012 3.92c0 .69.102 1.267.307 1.737l3.931-4.246a1.967 1.967 0 0 0-.518-.341c-.315-.14-.687-.211-1.115-.211-.53 0-.988.112-1.377.338-.389.225-.69.563-.904 1.013-.214.451-.32 1.02-.32 1.707l-.004.003Zm5.12 0c0-.462-.054-.882-.16-1.259a3.395 3.395 0 0 0-.15-.414l-3.934 4.246c.099.093.2.178.315.248.378.237.82.355 1.327.355a2.58 2.58 0 0 0 1.343-.346c.389-.231.695-.583.92-1.056.226-.473.339-1.065.339-1.774Zm10.576-4.072c-.428-.237-.969-.355-1.622-.355-.484 0-.966.076-1.444.228a5.49 5.49 0 0 0-1.36.65 6.35 6.35 0 0 0-.474.347V9.21l-1.723.253v8.533h1.724v-6.418a4.94 4.94 0 0 1 .515-.265c.242-.107.484-.2.726-.278.242-.08.485-.138.727-.178.242-.04.476-.059.701-.059.315 0 .586.042.81.127.226.084.412.211.558.38.147.169.254.383.321.642.068.26.102.563.102.912v5.137H76.7v-5.491c0-.766-.107-1.392-.32-1.876-.215-.484-.536-.845-.964-1.081Zm9.749-4.055 1.723-.237v12.74h-1.402l-.211-.78a4.98 4.98 0 0 1-.38.256 4.606 4.606 0 0 1-1.175.524c-.4.112-.825.169-1.275.169-.778 0-1.445-.172-2.002-.516a3.355 3.355 0 0 1-1.285-1.461c-.298-.631-.447-1.38-.447-2.247 0-1.014.197-1.873.591-2.577.394-.704.915-1.242 1.563-1.613a4.154 4.154 0 0 1 2.103-.558 5.82 5.82 0 0 1 2.197.411V5.493Zm0 10.613V10.9c-.087-.03-.18-.067-.262-.092a5.108 5.108 0 0 0-1.597-.245c-.585 0-1.09.12-1.512.363a2.383 2.383 0 0 0-.971 1.064c-.226.468-.338 1.05-.338 1.749 0 .698.101 1.259.304 1.715.203.456.495.794.878 1.014.383.22.845.329 1.386.329.36 0 .763-.082 1.208-.245.284-.104.586-.256.904-.445Zm11.599-4.091c.14.608.171 1.306.093 2.095h-6.105c.022.43.081.802.183 1.115.13.394.32.707.574.937.253.231.566.395.938.49a5.33 5.33 0 0 0 1.318.144c.247 0 .495-.014.743-.042.248-.028.49-.073.727-.135.236-.062.464-.133.684-.212.22-.078.436-.157.65-.236l-.118 1.3a6.325 6.325 0 0 1-.912.39 5.696 5.696 0 0 1-.972.227c-.343.051-.74.077-1.19.077-.947 0-1.747-.167-2.4-.499a3.303 3.303 0 0 1-1.478-1.47C89.167 15.55 89 14.763 89 13.84a6.1 6.1 0 0 1 .279-1.9 4.143 4.143 0 0 1 .81-1.462 3.68 3.68 0 0 1 1.293-.946c.507-.225 1.082-.338 1.724-.338.642 0 1.213.107 1.715.321.5.214.915.532 1.242.955.326.422.56.937.7 1.546Zm-5.762-.093a4.157 4.157 0 0 0-.214.988h4.444c0-.338-.04-.656-.124-.946-.13-.45-.358-.803-.684-1.056-.327-.253-.76-.38-1.301-.38-.541 0-.958.115-1.318.346-.36.231-.628.58-.803 1.048Zm10.628 4.832c-.051.005-.11.008-.178.008a.918.918 0 0 1-.372-.067.614.614 0 0 1-.253-.212.934.934 0 0 1-.144-.363 2.829 2.829 0 0 1-.042-.524V5.24l-1.723.254v10.864c0 .326.045.605.135.836.09.231.22.42.389.566.169.146.368.25.599.313.231.062.482.093.752.093a3.758 3.758 0 0 0 1.048-.135l.169-1.335-.203.033c-.068.012-.127.02-.177.026Zm9.655.16c.09-.011.186-.034.288-.067l-.186 1.132a1.343 1.343 0 0 1-.195.059c-.073.017-.155.036-.245.059-.09.022-.183.037-.278.042a5.091 5.091 0 0 1-.296.009c-.361 0-.682-.06-.963-.178a1.364 1.364 0 0 1-.659-.574 1.557 1.557 0 0 1-.183-.499 5.088 5.088 0 0 1-.332.355c-.31.293-.665.518-1.065.676-.4.158-.876.237-1.427.237-.597 0-1.096-.113-1.496-.338-.4-.226-.698-.521-.895-.887a2.474 2.474 0 0 1-.296-1.192c0-.45.127-.864.38-1.241.254-.378.64-.69 1.158-.938.518-.248 1.171-.394 1.96-.44l1.974-.132v-.422c0-.327-.031-.611-.099-.853a1.34 1.34 0 0 0-.338-.6 1.472 1.472 0 0 0-.65-.355 3.782 3.782 0 0 0-1.023-.118c-.225 0-.453.008-.684.025a6.133 6.133 0 0 0-.701.093 10.336 10.336 0 0 0-1.538.423l.203-1.437c.282-.112.577-.21.887-.295.31-.085.639-.15.989-.195a8.305 8.305 0 0 1 1.064-.067c.496 0 .941.045 1.335.135.394.09.735.22 1.022.389.287.169.521.377.701.625.18.248.315.535.406.861.09.327.135.688.135 1.082l-.034 3.48c-.011.417.051.715.186.896.135.18.355.27.659.27.067 0 .146-.006.236-.017v-.003Zm-2.768-1.01.009-1.676h-1.479c-.552 0-.991.045-1.318.135-.326.09-.563.231-.709.423-.147.19-.22.456-.22.793 0 .26.057.482.169.668.113.186.279.33.499.43.219.102.487.153.802.153.248 0 .487-.023.718-.068.231-.045.451-.118.659-.22.209-.1.406-.225.591-.371.099-.079.192-.17.282-.265l-.003-.003Zm12.247-6.711v8.752c0 .743-.166 1.4-.499 1.968-.332.57-.825 1.014-1.478 1.335-.653.321-1.459.482-2.416.482a8.97 8.97 0 0 1-1.115-.068 8.44 8.44 0 0 1-1.039-.194 7.251 7.251 0 0 1-.955-.313l-.186-1.487c.349.147.704.268 1.065.364.36.095.718.163 1.072.202.355.04.702.06 1.04.06.506 0 .937-.054 1.292-.161.355-.107.642-.27.862-.49.219-.22.383-.49.49-.811.107-.321.16-.696.16-1.124v-.461c-.318.233-.639.42-.963.546a4.87 4.87 0 0 1-1.808.355c-.788 0-1.458-.172-2.01-.516a3.274 3.274 0 0 1-1.259-1.453c-.287-.625-.431-1.365-.431-2.221 0-.766.113-1.445.338-2.036a4.16 4.16 0 0 1 .938-1.487c.4-.4.853-.707 1.36-.92a4.085 4.085 0 0 1 1.605-.322c.327 0 .631.02.912.06.282.039.544.092.786.16.206.056.4.126.586.205l1.653-.425Zm-1.707 6.857V10.9c-.084-.032-.172-.065-.253-.093a6.276 6.276 0 0 0-.794-.195 4.623 4.623 0 0 0-.794-.067c-.451 0-.854.07-1.208.21-.355.142-.654.342-.896.6a2.586 2.586 0 0 0-.557.99c-.13.399-.195.858-.195 1.376 0 .698.093 1.27.279 1.715.186.445.473.777.862.997.388.22.875.33 1.461.33.214 0 .42-.023.617-.068.197-.045.4-.11.608-.195a6.384 6.384 0 0 0 .87-.45Z"/></g><defs><clipPath id="a"><path fill="#fff" d="M43 5h78v17H43z"/></clipPath></defs></svg>
